X:19201
T:Yellow Tinker, The
M:4/4
L:1/8
R:reel
D:Altan: The Red Crow
Z:Devin McCabe
K:ADor
EAAG EGDG|EA A/2A/2A fAeA|EAAG EDEF|1G2BG cGBG:|2GABc dBGB||
!A2 eA fAeA|fAeA dBGB|A2eA fAe^c|d2BG DGBG|
!A2 eA fAeA|fAeA dBGB|e3f gffe|d2BG DGBG||


